src/images/gtk4.svg

<?xml version="1.0" encoding="UTF-8" standalone="no"?>
<svg
   xmlns:dc="http://purl.org/dc/elements/1.1/"
   xmlns:cc="http://creativecommons.org/ns#"
   xmlns:rdf="http://www.w3.org/1999/02/22-rdf-syntax-ns#"
   xmlns:svg="http://www.w3.org/2000/svg"
   xmlns="http://www.w3.org/2000/svg"
   version="1.0"
   width="31.997004"
   height="34.705677"
   id="svg6843">
  <metadata
     id="metadata12">
    <rdf:RDF>
      <cc:Work
         rdf:about="">
        <dc:format>image/svg+xml</dc:format>
        <dc:type
           rdf:resource="http://purl.org/dc/dcmitype/StillImage" />
        <dc:title></dc:title>
      </cc:Work>
    </rdf:RDF>
  </metadata>
  <defs
     id="defs6845" />
  <g
     transform="matrix(0.34560603,0,0,0.34684659,-6.1577717,-4.8943337)"
     id="layer1"
     style="stroke-width:2.88829">
    <path
       d="M 20.88413,30.82696 53.816977,55.527708 107.33282,39.060543 70.587303,17.177763 Z"
       id="path6976"
       style="display:inline;fill:#729fcf;fill-opacity:1;fill-rule:evenodd;stroke:#ffffff;stroke-width:6.13368;stroke-linecap:butt;stroke-linejoin:round;stroke-miterlimit:4;stroke-dasharray:none;stroke-opacity:1" />
    <path
       d="M 22.94243,82.287118 20.88413,30.82696 53.816977,55.527708 V 111.10486 Z"
       id="path6978"
       style="display:inline;fill:#e40000;fill-opacity:1;fill-rule:evenodd;stroke:#ffffff;stroke-width:6.13368;stroke-linecap:butt;stroke-linejoin:round;stroke-miterlimit:4;stroke-dasharray:none;stroke-opacity:1" />
    <path
       d="M 53.816977,111.10486 103.21619,90.5207 107.33282,39.060543 53.816977,55.527708 Z"
       id="path6980"
       style="display:inline;fill:#7fe719;fill-opacity:1;fill-rule:evenodd;stroke:#ffffff;stroke-width:6.13368;stroke-linecap:butt;stroke-linejoin:round;stroke-miterlimit:4;stroke-dasharray:none;stroke-opacity:1" />
    <path
       d="M 23.216626,81.319479 70.48573,67.361442 103.38422,90.444516"
       id="path6982"
       style="fill:none;stroke:#ffffff;stroke-width:3.61037;stroke-linecap:butt;stroke-linejoin:miter;stroke-miterlimit:4;stroke-dasharray:none;stroke-opacity:1" />
    <path
       d="M 70.434539,17.875593 V 66.984877"
       id="path6984"
       style="fill:#babdb6;fill-rule:evenodd;stroke:#ffffff;stroke-width:3.61037;stroke-linecap:butt;stroke-linejoin:miter;stroke-miterlimit:4;stroke-dasharray:none;stroke-opacity:1" />
  </g>
</svg>

<?xml version="1.0" encoding="UTF-8"?>
<svg width="31.997" height="34.706" version="1.0" xmlns="http://www.w3.org/2000/svg">
 <g transform="matrix(.34561 0 0 .34685 -6.1578 -4.8943)" stroke="#fff">
  <g fill-rule="evenodd" stroke-linejoin="round" stroke-width="6.1337">
   <path d="m20.884 30.827 32.933 24.701 53.516-16.467-36.746-21.883z" fill="#729fcf"/>
   <path d="m22.942 82.287-2.0583-51.46 32.933 24.701v55.577z" fill="#e40000"/>
   <path d="m53.817 111.1 49.399-20.584 4.1166-51.46-53.516 16.467z" fill="#7fe719"/>
  </g>
  <path d="m23.217 81.319 47.269-13.958 32.898 23.083" fill="none" stroke-width="3.6104"/>
  <path d="m70.435 17.876v49.109" fill="#babdb6" fill-rule="evenodd" stroke-width="3.6104"/>
 </g>
</svg>
